X: 295
T: The rivals
C: anon.
O: Ireland
B: Francis O'Neill: "The Dance Music of Ireland" (1907) no. 294
R: Double jig
Z: Transcribed by Frank Nordberg - http://www.musicaviva.com
F: http://www.musicaviva.com/abc/tunes/ireland/oneill-1001/oneill-1001-029
4.abc
M: 6/8
L: 1/8
K: Ador
(a/g/)|ecA A>BA|{d}cBA Aaf|ecA A>BA|dBG GBd|{d}cBA A>BA|ecA Ace|{g}fed ed
^c|dBG A2:|
||c/B/|A>aa aea|{d}cBA ABA|A>aa efg|dBG GcB|Aaa aea|fga efg|{g}fed ed^c|d
BG A2 (c/B/):|
||A>aa e2a|{d}cBA A>cB|A>aa efg|dBG GcB|Aaa efg|fga efg|{g}fed ed^c|dBG A
2: |
W:
W:
W: From Musica Viva - http://www.musicaviva.com
W: the Internet center for free sheet music downloads.


